svg/furkot/freepik/dam.svg

<svg viewBox="0 0 512 512" xmlns="http://www.w3.org/2000/svg"><path d="m.784 0v512.973h160.126l-88.862-512.973zm487.971 164.591c-12.203-8.988-28.914-21.299-59.79-21.299-30.879 0-47.591 12.31-59.792 21.299-8.982 6.616-12.697 9.354-23.432 9.354-10.73 0-14.447-2.738-23.426-9.353-12.204-8.988-28.912-21.3-59.787-21.3s-47.587 12.31-59.788 21.299c-8.979 6.616-12.694 9.354-23.427 9.354-10.73 0-14.447-2.738-23.425-9.353-7.257-5.345-16.11-11.867-28.588-16.274l13.685 79.003c9.801 4.529 22.108 7.927 38.328 7.927 30.876 0 47.587-12.308 59.79-21.3 8.978-6.616 12.695-9.353 23.426-9.353 10.733 0 14.449 2.737 23.427 9.353 12.204 8.99 28.915 21.3 59.787 21.3 30.879 0 47.591-12.308 59.792-21.3 8.982-6.616 12.697-9.353 23.432-9.353 10.736 0 14.452 2.737 23.431 9.353 12.204 8.99 28.916 21.3 59.792 21.3v-61.304c-10.736.001-14.454-2.737-23.435-9.353zm-59.791 112.037c-30.879 0-47.591 12.31-59.792 21.301-8.982 6.616-12.697 9.354-23.432 9.354-10.73 0-14.447-2.738-23.426-9.352-12.203-8.99-28.914-21.303-59.789-21.303-30.873 0-47.586 12.31-59.786 21.301-8.979 6.616-12.695 9.354-23.427 9.354-10.73 0-14.447-2.738-23.425-9.352-.987-.727-2.007-1.478-3.06-2.241l12.469 71.977c4.325.589 8.98.921 14.016.921 30.876 0 47.587-12.309 59.79-21.301 8.978-6.616 12.695-9.354 23.427-9.354 10.731 0 14.447 2.738 23.426 9.354 12.202 8.99 28.913 21.301 59.787 21.301 30.878 0 47.591-12.309 59.792-21.301 8.981-6.616 12.697-9.354 23.432-9.354 10.736 0 14.451 2.738 23.43 9.354 12.205 8.99 28.916 21.301 59.792 21.301v-61.305c-10.735 0-14.452-2.738-23.431-9.354-12.204-8.991-28.915-21.301-59.793-21.301zm0 136.403c-30.879 0-47.591 12.309-59.792 21.302-8.982 6.616-12.697 9.353-23.432 9.353-10.73 0-14.447-2.737-23.426-9.353-12.203-8.988-28.914-21.302-59.789-21.302-30.873 0-47.586 12.309-59.786 21.302-8.979 6.616-12.695 9.353-23.427 9.353-.295 0-.566-.011-.851-.014l10.548 60.884c24.799-2.245 39.236-12.866 50.093-20.864 8.978-6.617 12.695-9.355 23.427-9.355 10.731 0 14.447 2.738 23.426 9.355 12.202 8.988 28.913 21.299 59.787 21.299 30.878 0 47.591-12.308 59.792-21.299 8.981-6.617 12.697-9.355 23.432-9.355 10.736 0 14.451 2.738 23.43 9.355 12.205 8.988 28.916 21.299 59.792 21.299v-61.305c-10.735 0-14.452-2.737-23.431-9.353-12.204-8.99-28.915-21.302-59.793-21.302z"/></svg>

<svg xmlns="http://www.w3.org/2000/svg" viewBox="0 0 512 512"><path d="M0.784 0L0.784 512.973 160.91 512.973 72.048 0ZM488.755 164.591C476.552 155.603 459.841 143.292 428.965 143.292 398.086 143.292 381.374 155.602 369.173 164.591 360.191 171.207 356.476 173.945 345.741 173.945 335.011 173.945 331.294 171.207 322.315 164.592 310.111 155.604 293.403 143.292 262.528 143.292 231.653 143.292 214.941 155.602 202.74 164.591 193.761 171.207 190.046 173.945 179.313 173.945 168.583 173.945 164.866 171.207 155.888 164.592 148.631 159.247 139.778 152.725 127.3 148.318L140.985 227.321C150.786 231.85 163.093 235.248 179.313 235.248 210.189 235.248 226.9 222.94 239.103 213.948 248.081 207.332 251.798 204.595 262.529 204.595 273.262 204.595 276.978 207.332 285.956 213.948 298.16 222.938 314.871 235.248 345.743 235.248 376.622 235.248 393.334 222.94 405.535 213.948 414.517 207.332 418.232 204.595 428.967 204.595 439.703 204.595 443.419 207.332 452.398 213.948 464.602 222.938 481.314 235.248 512.19 235.248V173.944C501.454 173.945 497.736 171.207 488.755 164.591ZM428.964 276.628C398.085 276.628 381.373 288.938 369.172 297.929 360.19 304.545 356.475 307.283 345.74 307.283 335.01 307.283 331.293 304.545 322.314 297.931 310.111 288.941 293.4 276.628 262.525 276.628 231.652 276.628 214.939 288.938 202.739 297.929 193.76 304.545 190.044 307.283 179.312 307.283 168.582 307.283 164.865 304.545 155.887 297.931 154.9 297.204 153.88 296.453 152.827 295.69L165.296 367.667C169.621 368.256 174.276 368.588 179.312 368.588 210.188 368.588 226.899 356.279 239.102 347.287 248.08 340.671 251.797 337.933 262.529 337.933 273.26 337.933 276.976 340.671 285.955 347.287 298.157 356.277 314.868 368.588 345.742 368.588 376.62 368.588 393.333 356.279 405.534 347.287 414.515 340.671 418.231 337.933 428.966 337.933 439.702 337.933 443.417 340.671 452.396 347.287 464.601 356.277 481.312 368.588 512.188 368.588V307.283C501.453 307.283 497.736 304.545 488.757 297.929 476.553 288.938 459.842 276.628 428.964 276.628ZM428.964 413.031C398.085 413.031 381.373 425.34 369.172 434.333 360.19 440.949 356.475 443.686 345.74 443.686 335.01 443.686 331.293 440.949 322.314 434.333 310.111 425.345 293.4 413.031 262.525 413.031 231.652 413.031 214.939 425.34 202.739 434.333 193.76 440.949 190.044 443.686 179.312 443.686 179.017 443.686 178.746 443.675 178.461 443.672L189.009 504.556C213.808 502.311 228.245 491.69 239.102 483.692 248.08 477.075 251.797 474.337 262.529 474.337 273.26 474.337 276.976 477.075 285.955 483.692 298.157 492.68 314.868 504.991 345.742 504.991 376.62 504.991 393.333 492.683 405.534 483.692 414.515 477.075 418.231 474.337 428.966 474.337 439.702 474.337 443.417 477.075 452.396 483.692 464.601 492.68 481.312 504.991 512.188 504.991V443.686C501.453 443.686 497.736 440.949 488.757 434.333 476.553 425.343 459.842 413.031 428.964 413.031Z"/></svg>
